wp-content/plugins/siteorigin-premium/inc/installer/img/premium-icon.svg

<svg height="256" viewBox="0 0 256 256" width="256" xmlns="http://www.w3.org/2000/svg"><g fill="none" fill-rule="evenodd"><path d="m64 0h128c35.346224 0 64 28.653776 64 64v128c0 35.346224-28.653776 64-64 64h-128c-35.346224 0-64-28.653776-64-64v-128c0-35.346224 28.653776-64 64-64z" fill="#f84646"/><g transform="translate(57 58)"><path d="m21.333624 0h99.332752c1.187989 0 2.2859.64202193 2.88079 1.6845907l18.452834 32.3393137h-142l18.4528339-32.3393137c.5948905-1.04256877 1.6928013-1.6845907 2.8807901-1.6845907z" fill="#f6c3c3"/><path d="m0 34.0239044h142v102.6294816c0 1.848284-1.490052 3.346614-3.328125 3.346614h-135.34375c-1.83807268 0-3.328125-1.49833-3.328125-3.346614z" fill="#fff"/><path d="m13.3125 96.494024h33.28125v8.366534h-33.28125z" fill="#fdd8d8"/><path d="m13.3125 110.438247h33.28125v8.366534h-33.28125z" fill="#fdd8d8"/><path d="m84.8671875 34.0239044h-27.734375l4.5411308-34.0239044h18.7870665z" fill="#ea7777" fill-rule="nonzero"/><path d="m57.1328125 73.0677291 13.9573242-11.1553785 13.7770508 11.1553785v-39.0438247h-27.734375z" fill="#f6c3c3" fill-rule="nonzero"/><path d="m96.9211911 121.185806c1.6779952 1.687317 1.6779952 4.422998 0 6.110315-1.1186634 1.124878-4.3970813 2.384737-9.8352536 3.779576 1.3871337-5.468382 2.6400322-8.765013 3.7586957-9.889891 1.6779951-1.687316 4.3985628-1.687316 6.0765579 0zm35.7681769-35.9673501c1.649254 9.8153006-1.384413 18.5984961-9.101001 26.3495851-.93157.935736-1.868395 1.794844-2.804744 2.582442l-.681935 9.57572c-.042772.600642-.356801 1.14782-.851064 1.486118l-.031792.021308-7.989088 5.242403c-.224923.147593-.477658.247151-.742504.292489-1.055624.180707-2.057785-.522971-2.254902-1.575944l-.006017-.033723-1.319527-7.776634c-1.517769.349062-2.917912.526222-4.15714.570144l-6.6306843-6.66033c.043347-1.233957.2170439-2.626752.5585896-4.136028l-7.6836102-1.315514c-1.0668542-.18263-1.7843187-1.199404-1.6025019-2.271028.0451359-.26603.1442509-.519895.2911872-.745823l5.2190675-8.0248078c.334849-.5148617.8900258-.8429268 1.5007169-.8868036l9.4366682-.6780723c.796892-.9593555 1.667751-1.9193277 2.617983-2.8738086 7.716588-7.7510896 16.460688-10.7983205 26.232298-9.1416928zm-17.793596 10.7936774c-1.949571 1.9604008-1.949571 5.1388387 0 7.0992397 1.94957 1.960401 5.110448 1.960401 7.060019 0 1.94957-1.960401 1.94957-5.1388389 0-7.0992397-1.949571-1.9604008-5.110449-1.9604008-7.060019 0z" fill="#ff6b6b"/></g></g></svg>

<?xml version="1.0" encoding="UTF-8"?>
<svg width="256px" height="256px" viewBox="0 0 256 256" version="1.1" xmlns="http://www.w3.org/2000/svg" xmlns:xlink="http://www.w3.org/1999/xlink">
    <title>Icon</title>
    <g id="Page-1" stroke="none" stroke-width="1" fill="none" fill-rule="evenodd">
        <g id="Icon">
            <path d="M64,0 L192,0 C227.346224,0 256,28.653776 256,64 L256,192 C256,227.346224 227.346224,256 192,256 L64,256 C28.653776,256 0,227.346224 0,192 L0,64 C0,28.653776 28.653776,0 64,0 Z" id="Background" fill="#F84646"></path>
            <g id="Package" transform="translate(57.000000, 58.000000)">
                <path d="M21.333624,0 L120.666376,0 C121.854365,0 122.952276,0.642021928 123.547166,1.6845907 L142,34.0239044 L0,34.0239044 L18.4528339,1.6845907 C19.0477244,0.642021928 20.1456352,0 21.333624,0 Z" id="Cover" fill="#F6C3C3"></path>
                <path d="M0,34.0239044 L142,34.0239044 L142,136.653386 C142,138.50167 140.509948,140 138.671875,140 L3.328125,140 C1.49005232,140 0,138.50167 0,136.653386 L0,34.0239044 Z" id="Cover" fill="#FFFFFF"></path>
                <rect id="Line" fill="#FDD8D8" x="13.3125" y="96.4940239" width="33.28125" height="8.36653386"></rect>
                <rect id="Line" fill="#FDD8D8" x="13.3125" y="110.438247" width="33.28125" height="8.36653386"></rect>
                <polygon id="Ribbon" fill="#EA7777" fill-rule="nonzero" points="84.8671875 34.0239044 57.1328125 34.0239044 61.6739433 0 80.4610098 0"></polygon>
                <polygon id="Ribbon" fill="#F6C3C3" fill-rule="nonzero" points="57.1328125 73.0677291 71.0901367 61.9123506 84.8671875 73.0677291 84.8671875 34.0239044 57.1328125 34.0239044"></polygon>
                <path d="M96.9211911,121.185806 C98.5991863,122.873123 98.5991863,125.608804 96.9211911,127.296121 C95.8025277,128.420999 92.5241098,129.680858 87.0859375,131.075697 C88.4730712,125.607315 89.7259697,122.310684 90.8446332,121.185806 C92.5226283,119.49849 95.243196,119.49849 96.9211911,121.185806 Z M132.689368,85.2184559 C134.338622,95.0337565 131.304955,103.816952 123.588367,111.568041 C122.656797,112.503777 121.719972,113.362885 120.783623,114.150483 L120.101688,123.726203 C120.058916,124.326845 119.744887,124.874023 119.250624,125.212321 L119.218832,125.233629 L111.229744,130.476032 C111.004821,130.623625 110.752086,130.723183 110.48724,130.768521 C109.431616,130.949228 108.429455,130.24555 108.232338,129.192577 L108.226321,129.158854 L106.906794,121.38222 C105.389025,121.731282 103.988882,121.908442 102.749654,121.952364 L96.1189697,115.292034 C96.1623167,114.058077 96.3360136,112.665282 96.6775593,111.156006 L88.9939491,109.840492 C87.9270949,109.657862 87.2096304,108.641088 87.3914472,107.569464 C87.4365831,107.303434 87.5356981,107.049569 87.6826344,106.823641 L92.9017019,98.7988332 C93.2365509,98.2839715 93.7917277,97.9559064 94.4024188,97.9120296 L103.839087,97.2339573 C104.635979,96.2746018 105.506838,95.3146296 106.45707,94.3601487 C114.173658,86.6090591 122.917758,83.5618282 132.689368,85.2184559 Z M114.895772,96.0121333 C112.946201,97.9725341 112.946201,101.150972 114.895772,103.111373 C116.845342,105.071774 120.00622,105.071774 121.955791,103.111373 C123.905361,101.150972 123.905361,97.9725341 121.955791,96.0121333 C120.00622,94.0517325 116.845342,94.0517325 114.895772,96.0121333 Z" id="Rocket" fill="#FF6B6B"></path>
            </g>
        </g>
    </g>
</svg>
